X: 4
T:Miss Marianne's Strathspey
M:4/4
L:1/8
Q:120
R:Strathspey
K:A
e>d|"A"c<.e A>ce>f g2|"D"f<.a d>f "A"e2 e>d|
c<.e A>c e>f g>e|"G"d<.B G>B d2 e>d|
"A"c<.e A>ce>f g2|"D"f<.a d>f "A"e2 e>d|
c<.e A>c "G"B<.d G>B|"A"A4-A2::
(3efg|"A"a>g a>f e<.c a>e|"D"f<.a d>f "A"e2 (3efg|
a>g a>f e<.c a>e|"G"d<.B G>B d2 (3efg|
"A"a>g a>f e<.c a>e|"D"f<.a d>f "A"e2 e>d|
c<.e A>c "G"B<.d G>B|"A"A4-A2:|
